X:1
T:Dunbar, SM
T:Charles W. Dunbar, 1858
T:Dunbar, SM
T:Public Domain
C:Charles W. Dunbar, 1858
Z:Public Domain
%%score ( 1 2 ) ( 3 4 )
L:1/8
M:6/8
K:G
V:1 treble 
V:2 treble 
V:3 bass 
V:4 bass 
V:1
 [DG]3 | (BA)[DG] (DF)[DA] | [DG]3 [Gd]3 | (dB)G [FA]2 [GB] | [FA]3 [Fd]3 | %5
 ([Bd][Ac])[GB] ([GB][FA])[EG] | [EG]2 [EG] (GE)D | (BA)[DG] (DF)[DA] | [DG]3 |] %9
V:2
 x3 | D2 D2 x2 | x6 | G2 G x3 | x6 | x6 | x3 E2 D | D2 D2 x2 | x3 |] %9
V:3
 [G,B,]3 | (DC)[G,B,] [D,C]2 [D,C] | [G,B,]3 [G,B,]3 | (B,D)[G,B,] [D,D]2 [G,D] | [D,D]3 [D,D]3 | %5
 [G,D]2 [G,D] (DC)[E,B,] | [C,C]2 [C,C] [C,C]2 [G,,B,] | (DC)[D,B,] [D,C]2 [D,C] | [G,,B,]3 |] %9
V:4
 x3 | G,2 x4 | x6 | G,2 x4 | x6 | x3 D,2 x | x6 | D,2 x4 | x3 |] %9

